sirius_gui/src/main/resources/icons/circular-icons-svg/c-folder-open.svg

<?xml version="1.0" encoding="UTF-8" standalone="no"?>
<svg
   width="64px"
   height="64px"
   viewBox="0 0 64 64"
   version="1.1"
   id="svg11178"
   sodipodi:docname="c-folder-open.svg"
   inkscape:version="1.2 (dc2aeda, 2022-05-15)"
   xmlns:inkscape="http://www.inkscape.org/namespaces/inkscape"
   xmlns:sodipodi="http://sodipodi.sourceforge.net/DTD/sodipodi-0.dtd"
   xmlns="http://www.w3.org/2000/svg"
   xmlns:svg="http://www.w3.org/2000/svg"
   xmlns:sketch="http://www.bohemiancoding.com/sketch/ns">
  <sodipodi:namedview
     id="namedview11180"
     pagecolor="#ffffff"
     bordercolor="#000000"
     borderopacity="0.25"
     inkscape:showpageshadow="2"
     inkscape:pageopacity="0.0"
     inkscape:pagecheckerboard="0"
     inkscape:deskcolor="#d1d1d1"
     showgrid="false"
     inkscape:zoom="3.6875"
     inkscape:cx="1.3559322"
     inkscape:cy="33.220339"
     inkscape:window-width="1596"
     inkscape:window-height="677"
     inkscape:window-x="0"
     inkscape:window-y="39"
     inkscape:window-maximized="0"
     inkscape:current-layer="svg11178" />
  <!-- Generator: Sketch 3.4 (15575) - http://www.bohemiancoding.com/sketch -->
  <title
     id="title11166">c-folder-open</title>
  <desc
     id="desc11168">Created with Sketch.</desc>
  <defs
     id="defs11170" />
  <path
     d="M 32,64 C 49.673112,64 64,49.673112 64,32 64,14.326888 49.673112,0 32,0 14.326888,0 0,14.326888 0,32 0,49.673112 14.326888,64 32,64 Z"
     id="Oval-1"
     fill="#1191bb"
     sketch:type="MSShapeGroup"
     style="fill-rule:evenodd;stroke:none;stroke-width:1;fill:#4da6bf;fill-opacity:1" />
  <path
     d="M 52,22 C 52,16.477152 47.522847,12 42,12 v 2 c 4.418278,0 8,3.581722 8,8 z"
     id="Oval-179"
     fill="#ffffff"
     sketch:type="MSShapeGroup"
     style="fill-rule:evenodd;stroke:none;stroke-width:1" />
  <path
     d="M 42,29 V 19 H 14 v 26 h 0.4 L 24,29 Z M 17,15 h 8 l 3,4 H 14 Z m 8.5,16 H 52 L 44,45 H 17.5 Z"
     id="Rectangle-95"
     fill="#ffffff"
     sketch:type="MSShapeGroup"
     style="fill-rule:evenodd;stroke:none;stroke-width:1" />
  <path
     d="m 47,22 h 8 l -4,4.5 z"
     id="Rectangle-113"
     fill="#ffffff"
     sketch:type="MSShapeGroup"
     style="fill-rule:evenodd;stroke:none;stroke-width:1" />
</svg>

<?xml version="1.0" encoding="UTF-8"?>
<svg id="svg11178" width="64px" height="64px" version="1.1" viewBox="0 0 64 64" xmlns="http://www.w3.org/2000/svg">
 <!-- Generator: Sketch 3.4 (15575) - http://www.bohemiancoding.com/sketch -->
 <title id="title11166">c-folder-open</title>
 <desc id="desc11168">Created with Sketch.</desc>
 <path id="Oval-1" d="m32 64c17.673 0 32-14.327 32-32s-14.327-32-32-32-32 14.327-32 32 14.327 32 32 32z" fill="#4da6bf" fill-rule="evenodd"/>
 <path id="Oval-179" d="m52 22c0-5.5228-4.4772-10-10-10v2c4.4183 0 8 3.5817 8 8z" fill="#fff" fill-rule="evenodd"/>
 <path id="Rectangle-95" d="m42 29v-10h-28v26h0.4l9.6-16zm-25-14h8l3 4h-14zm8.5 16h26.5l-8 14h-26.5z" fill="#fff" fill-rule="evenodd"/>
 <path id="Rectangle-113" d="m47 22h8l-4 4.5z" fill="#fff" fill-rule="evenodd"/>
</svg>
